client/public/assets/icons/custom/custom104.svg

<?xml version="1.0" encoding="UTF-8" standalone="no"?>
<svg width="100px" height="100px" viewBox="0 0 100 100" version="1.1" xmlns="http://www.w3.org/2000/svg" xmlns:xlink="http://www.w3.org/1999/xlink">
    <g stroke="none" stroke-width="1" fill="none" fill-rule="evenodd">
        <path d="M72.7205885,20.5735294 L27.279412,20.5735294 C25.5910806,20.5976509 24.235122,21.973261 24.2352944,23.6617647 L24.2352944,39.1470588 L75.7205885,39.1470588 L75.7205885,23.7058823 C75.7454013,22.01707 74.4088988,20.6216041 72.7205885,20.5735294 L72.7205885,20.5735294 Z M45.4558826,42.2794118 L45.4558826,79.4264706 L72.7205885,79.4264706 C74.4089199,79.4023491 75.7648784,78.026739 75.7647061,76.3382353 L75.7647061,42.2794118 L45.4558826,42.2794118 Z M24.279412,42.2794118 L24.279412,76.3382353 C24.2723648,77.1517928 24.5894082,77.9347021 25.1605482,78.5141195 C25.7316882,79.093537 26.509955,79.4218118 27.3235297,79.4264706 L42.4558826,79.4264706 L42.4558826,42.2794118 L24.279412,42.2794118 Z" id="Shape" fill="#FFFFFF"></path>
    </g>
</svg>

<?xml version="1.0"?><svg width="100" height="100" viewBox="0 0 100 100" xmlns="http://www.w3.org/2000/svg"><path d="m72.7 20.6h-45.4c-1.7 0-3.1 1.4-3.1 3.1v15.4h51.5v-15.4c0-1.7-1.3-3.1-3-3.1z m-27.2 21.7v37.1h27.2c1.7 0 3.1-1.4 3.1-3.1v-34h-30.3z m-21.2 0v34c0 0.9 0.3 1.6 0.9 2.2 0.5 0.6 1.3 0.9 2.1 0.9h15.2v-37.1h-18.2z" fill="#fff"></path></svg>
